X: 170
T:Hanter dro/en dro
M:2/4
L:1/8
Q:180
C:trad
O:France
A:Bretagne
K:C
c2cde2 c2|d2d2|c2 cde2c2|d4:|
|:gfed c2 e2|(3ded) cB A4|ABcAGBcd|1c2ded4:|c2B2A4||
W:
W: From "Falaleiro" http://home.t-online.de/home/pheld/homepage.htm
